X:124
T: Roth Roeslein
N: A0146
O: Europa, Mitteleuropa, Deutschland
N: Rhaw, Bicinia. 1545 Tom. I. No. 92.
R: Romanze, Ballade, Lied
M: 4/2
L: 1/2
K: G
g | ggee | c2c2 | z2
g | g2g | g2g | d3 | z2
d | d2d | c2c | dc2 | B3
c2dc- | cBA2 | G3

